X: 9
T: James Byrne's
Z: AdamM
S: https://thesession.org/tunes/266#setting48025
R: slip jig
M: 9/8
L: 1/8
K: Dmaj
|:A|dfa afd dcd|Bcd efd cBA|dfa afd dcd|Bcd ecA d2:|
|:f|ecA AEA cBA|~d3 fdf agf|ecA AEA cBA|d2e fdc d2:|

